svg/emoji_u1f6c5.svg

<svg enable-background="new 0 0 128 128" viewBox="0 0 128 128" xmlns="http://www.w3.org/2000/svg"><linearGradient id="a" x1="64" x2="64" y1="4.25" y2="124.41" gradientUnits="userSpaceOnUse"><stop stop-color="#82B1FF" offset="0"/><stop stop-color="#6FA0FF" offset=".2644"/><stop stop-color="#3D74FF" offset=".7989"/><stop stop-color="#2962FF" offset="1"/></linearGradient><path d="m116 124h-104c-4.42 0-8-3.58-8-8v-104c0-4.42 3.58-8 8-8h104c4.42 0 8 3.58 8 8v104c0 4.42-3.58 8-8 8z" fill="url(#a)"/><g opacity=".2"><path d="m116 7c2.76 0 5 2.24 5 5v104c0 2.76-2.24 5-5 5h-104c-2.76 0-5-2.24-5-5v-104c0-2.76 2.24-5 5-5h104m0-3h-104c-4.42 0-8 3.58-8 8v104c0 4.42 3.58 8 8 8h104c4.42 0 8-3.58 8-8v-104c0-4.42-3.58-8-8-8z" fill="#424242"/></g><g fill="#424242" opacity=".2"><path d="m104 36c4.42 0 8 3.58 8 8v60c0 4.42-3.58 8-8 8h-80c-4.42 0-8-3.58-8-8v-60c0-4.42 3.58-8 8-8h80m-80 71h80c1.65 0 3-1.35 3-3v-60c0-1.65-1.35-3-3-3h-80c-1.65 0-3 1.35-3 3v60c0 1.65 1.35 3 3 3m80-74h-80c-6.07 0-11 4.93-11 11v60c0 6.07 4.93 11 11 11h80c6.07 0 11-4.93 11-11v-60c0-6.07-4.93-11-11-11zm-80 71v-60h80v60h-80z"/><path d="m72 44c2.21 0 4 1.79 4 4v8h3c0.55 0 1 0.45 1 1v42c0 0.55-0.45 1-1 1h-30c-0.55 0-1-0.45-1-1v-42c0-0.55 0.45-1 1-1h3v-8c0-2.21 1.79-4 4-4h16m-15 12h14c0.55 0 1-0.45 1-1v-6c0-0.55-0.45-1-1-1h-14c-0.55 0-1 0.45-1 1v6c0 0.55 0.45 1 1 1m15-15h-16c-3.86 0-7 3.14-7 7v5c-2.21 0-4 1.79-4 4v42c0 2.21 1.79 4 4 4h30c2.21 0 4-1.79 4-4v-42c0-2.21-1.79-4-4-4v-5c0-3.86-3.14-7-7-7zm-13 10h10v2h-10v-2z"/><path d="m43 56c0.55 0 1 0.45 1 1v42c0 0.55-0.45 1-1 1h-7c-4.42 0-8-3.58-8-8v-28c0-4.42 3.58-8 8-8h7m0-3h-7c-6.07 0-11 4.93-11 11v28c0 6.07 4.93 11 11 11h7c2.21 0 4-1.79 4-4v-42c0-2.21-1.79-4-4-4z"/><path d="m92 56c4.42 0 8 3.58 8 8v28c0 4.42-3.58 8-8 8h-7c-0.55 0-1-0.45-1-1v-42c0-0.55 0.45-1 1-1h7m0-3h-7c-2.21 0-4 1.79-4 4v42c0 2.21 1.79 4 4 4h7c6.07 0 11-4.93 11-11v-28c0-6.07-4.93-11-11-11z"/><path d="m52 16c3.73 0 6.85 2.55 7.74 6h22.26c1.1 0 2 0.9 2 2s-0.9 2-2 2h-4v4c0 1.1-0.9 2-2 2s-2-0.9-2-2v-4h-4v4c0 1.1-0.9 2-2 2s-2-0.9-2-2v-4h-6.26c-0.89 3.45-4.01 6-7.74 6-4.42 0-8-3.58-8-8s3.58-8 8-8m0 12c2.21 0 4-1.79 4-4s-1.79-4-4-4-4 1.79-4 4 1.79 4 4 4m0-15c-6.07 0-11 4.93-11 11s4.93 11 11 11c4.2 0 7.95-2.38 9.79-6h1.21v1c0 2.76 2.24 5 5 5 1.63 0 3.09-0.79 4-2 0.91 1.22 2.37 2 4 2 2.76 0 5-2.24 5-5v-1h1c2.76 0 5-2.24 5-5s-2.24-5-5-5h-20.21c-1.84-3.62-5.59-6-9.79-6zm0 12c-0.55 0-1-0.45-1-1s0.45-1 1-1 1 0.45 1 1-0.45 1-1 1z"/></g><g fill="#FAFAFA"><path d="m104 41c1.65 0 3 1.35 3 3v60c0 1.65-1.35 3-3 3h-80c-1.65 0-3-1.35-3-3v-60c0-1.65 1.35-3 3-3h80m0-5h-80c-4.42 0-8 3.58-8 8v60c0 4.42 3.58 8 8 8h80c4.42 0 8-3.58 8-8v-60c0-4.42-3.58-8-8-8z"/><path d="m79 56h-3v-8c0-2.21-1.79-4-4-4h-16c-2.21 0-4 1.79-4 4v8h-3c-0.55 0-1 0.45-1 1v42c0 0.55 0.45 1 1 1h30c0.55 0 1-0.45 1-1v-42c0-0.55-0.45-1-1-1zm-22-8h14c0.55 0 1 0.45 1 1v6c0 0.55-0.45 1-1 1h-14c-0.55 0-1-0.45-1-1v-6c0-0.55 0.45-1 1-1z"/><path d="m43 56h-7c-4.42 0-8 3.58-8 8v28c0 4.42 3.58 8 8 8h7c0.55 0 1-0.45 1-1v-42c0-0.55-0.45-1-1-1z"/><path d="m92 56h-7c-0.55 0-1 0.45-1 1v42c0 0.55 0.45 1 1 1h7c4.42 0 8-3.58 8-8v-28c0-4.42-3.58-8-8-8z"/><path d="m82 22h-22.26c-0.89-3.45-4.01-6-7.74-6-4.42 0-8 3.58-8 8s3.58 8 8 8c3.73 0 6.85-2.55 7.74-6h6.26v4c0 1.1 0.9 2 2 2s2-0.9 2-2v-4h4v4c0 1.1 0.9 2 2 2s2-0.9 2-2v-4h4c1.1 0 2-0.9 2-2s-0.9-2-2-2zm-30 6c-2.21 0-4-1.79-4-4s1.79-4 4-4 4 1.79 4 4-1.79 4-4 4z"/></g></svg>

<svg width="128" height="128" style="enable-background:new 0 0 128 128;" xmlns="http://www.w3.org/2000/svg" xmlns:xlink="http://www.w3.org/1999/xlink">
  <g>
    <linearGradient id="SVGID_1_" gradientUnits="userSpaceOnUse" x1="64" x2="64" y1="4.25" y2="124.4088">
      <stop offset="0" style="stop-color:#82B1FF"/>
      <stop offset="0.2644" style="stop-color:#6FA0FF"/>
      <stop offset="0.7989" style="stop-color:#3D74FF"/>
      <stop offset="1" style="stop-color:#2962FF"/>
    </linearGradient>
    <path d="M116,124H12c-4.42,0-8-3.58-8-8V12c0-4.42,3.58-8,8-8h104c4.42,0,8,3.58,8,8v104 C124,120.42,120.42,124,116,124z" style="fill:url(#SVGID_1_);"/>
    <g style="opacity:0.2;">
      <path d="M116,7c2.76,0,5,2.24,5,5v104c0,2.76-2.24,5-5,5H12c-2.76,0-5-2.24-5-5V12c0-2.76,2.24-5,5-5H116 M116,4H12c-4.42,0-8,3.58-8,8v104c0,4.42,3.58,8,8,8h104c4.42,0,8-3.58,8-8V12C124,7.58,120.42,4,116,4L116,4z" style="fill:#424242;"/>
    </g>
    <g style="opacity:0.2;">
      <path d="M104,36c4.42,0,8,3.58,8,8v60c0,4.42-3.58,8-8,8H24c-4.42,0-8-3.58-8-8V44c0-4.42,3.58-8,8-8H104 M24,107h80c1.65,0,3-1.35,3-3V44c0-1.65-1.35-3-3-3H24c-1.65,0-3,1.35-3,3v60C21,105.65,22.35,107,24,107 M104,33H24 c-6.07,0-11,4.93-11,11v60c0,6.07,4.93,11,11,11h80c6.07,0,11-4.93,11-11V44C115,37.93,110.07,33,104,33L104,33z M24,104L24,104 V44h80v60H24L24,104z" style="fill:#424242;"/>
      <path d="M72,44c2.21,0,4,1.79,4,4v8h3c0.55,0,1,0.45,1,1v42c0,0.55-0.45,1-1,1H49c-0.55,0-1-0.45-1-1V57 c0-0.55,0.45-1,1-1h3v-8c0-2.21,1.79-4,4-4H72 M57,56h14c0.55,0,1-0.45,1-1v-6c0-0.55-0.45-1-1-1H57c-0.55,0-1,0.45-1,1v6 C56,55.55,56.45,56,57,56 M72,41H56c-3.86,0-7,3.14-7,7v5c-2.21,0-4,1.79-4,4v42c0,2.21,1.79,4,4,4h30c2.21,0,4-1.79,4-4V57 c0-2.21-1.79-4-4-4v-5C79,44.14,75.86,41,72,41L72,41z M59,51h10v2H59V51L59,51z" style="fill:#424242;"/>
      <path d="M43,56c0.55,0,1,0.45,1,1v42c0,0.55-0.45,1-1,1h-7c-4.42,0-8-3.58-8-8V64c0-4.42,3.58-8,8-8H43 M43,53h-7c-6.07,0-11,4.93-11,11v28c0,6.07,4.93,11,11,11h7c2.21,0,4-1.79,4-4V57C47,54.79,45.21,53,43,53L43,53z" style="fill:#424242;"/>
      <path d="M92,56c4.42,0,8,3.58,8,8v28c0,4.42-3.58,8-8,8h-7c-0.55,0-1-0.45-1-1V57c0-0.55,0.45-1,1-1H92 M92,53h-7c-2.21,0-4,1.79-4,4v42c0,2.21,1.79,4,4,4h7c6.07,0,11-4.93,11-11V64C103,57.93,98.07,53,92,53L92,53z" style="fill:#424242;"/>
      <path d="M52,16c3.73,0,6.85,2.55,7.74,6H82c1.1,0,2,0.9,2,2s-0.9,2-2,2h-4v4c0,1.1-0.9,2-2,2s-2-0.9-2-2 v-4h-4v4c0,1.1-0.9,2-2,2s-2-0.9-2-2v-4h-6.26c-0.89,3.45-4.01,6-7.74,6c-4.42,0-8-3.58-8-8S47.58,16,52,16 M52,28 c2.21,0,4-1.79,4-4s-1.79-4-4-4s-4,1.79-4,4S49.79,28,52,28 M52,13c-6.07,0-11,4.93-11,11s4.93,11,11,11c4.2,0,7.95-2.38,9.79-6 H63v1c0,2.76,2.24,5,5,5c1.63,0,3.09-0.79,4-2c0.91,1.22,2.37,2,4,2c2.76,0,5-2.24,5-5v-1h1c2.76,0,5-2.24,5-5s-2.24-5-5-5H61.79 C59.95,15.38,56.2,13,52,13L52,13z M52,25c-0.55,0-1-0.45-1-1s0.45-1,1-1s1,0.45,1,1S52.55,25,52,25L52,25z" style="fill:#424242;"/>
    </g>
    <g>
      <path d="M104,41c1.65,0,3,1.35,3,3v60c0,1.65-1.35,3-3,3H24c-1.65,0-3-1.35-3-3V44c0-1.65,1.35-3,3-3H104 M104,36H24c-4.42,0-8,3.58-8,8v60c0,4.42,3.58,8,8,8h80c4.42,0,8-3.58,8-8V44C112,39.58,108.42,36,104,36L104,36z" style="fill:#FAFAFA;"/>
      <g>
        <path d="M79,56h-3v-8c0-2.21-1.79-4-4-4H56c-2.21,0-4,1.79-4,4v8h-3c-0.55,0-1,0.45-1,1v42 c0,0.55,0.45,1,1,1h30c0.55,0,1-0.45,1-1V57C80,56.45,79.55,56,79,56z M57,48h14c0.55,0,1,0.45,1,1v6c0,0.55-0.45,1-1,1H57 c-0.55,0-1-0.45-1-1v-6C56,48.45,56.45,48,57,48z" style="fill:#FAFAFA;"/>
        <path d="M43,56h-7c-4.42,0-8,3.58-8,8v28c0,4.42,3.58,8,8,8h7c0.55,0,1-0.45,1-1V57 C44,56.45,43.55,56,43,56z" style="fill:#FAFAFA;"/>
        <path d="M92,56h-7c-0.55,0-1,0.45-1,1v42c0,0.55,0.45,1,1,1h7c4.42,0,8-3.58,8-8V64 C100,59.58,96.42,56,92,56z" style="fill:#FAFAFA;"/>
      </g>
      <path d="M82,22H59.74c-0.89-3.45-4.01-6-7.74-6c-4.42,0-8,3.58-8,8s3.58,8,8,8c3.73,0,6.85-2.55,7.74-6H66 v4c0,1.1,0.9,2,2,2s2-0.9,2-2v-4h4v4c0,1.1,0.9,2,2,2s2-0.9,2-2v-4h4c1.1,0,2-0.9,2-2S83.1,22,82,22z M52,28c-2.21,0-4-1.79-4-4 s1.79-4,4-4s4,1.79,4,4S54.21,28,52,28z" style="fill:#FAFAFA;"/>
    </g>
  </g>
</svg>
